X: 03084
T: SIBBY'S JIG
C: Bob McQuillen 1 June 77
B: Bob's Note Book 03 #84
R: jig
%D:1977
Z: 2020 John Chambers <jc:trillian.mit.edu>
M: 6/8
L: 1/8
K: A
cd \
| ecA Acd | ecA AGA | BEE dcd | BGE E2c |\
| ecA Acd | ecA AGA | BEE dcB | A3- A  :|
|: ce \
| aba aec | efe ecA | aba aga | bge e2e |\
| aba aec | efe ecA | afa ecB | cAA A  :|
%%begintext align
%% For Sibby Kunhardt, who
%% is another one of those very
%% special ladies from Francestown.
%%endtext

%%sep 1 1 500

%%sep 1 1 500

